X:396
T: DER WEIN DER WEIN IST GOLDES WERTH
N: F0724
O: Europa, Mitteleuropa, Deutschland
R: Geselligkeits -, Trink - Lied
M: 4/4
L: 1/8
K: C
G, | G,3CC3E | EDCB,C2
E2 | EDCB,B,A,G,^F, | A,4G,2z
G, | G,3CC3E | EDCB,C2
E2 | EDCB,B,A,G,^F, | A,4G,2z
D | D3CCB,A,G, | G,A,G,F,E,2
C2 | A,2C2G,2C2 | EDCB,C2z
D | D3CCB,A,G, | G,A,G,F,E,2
C2 | A,2C2G,2C2 | EDCB,C2z

